public/assets/images/upwork.svg

<svg xmlns="http://www.w3.org/2000/svg" width="32" height="32" fill="none" viewBox="0 0 32 32">
  <circle cx="16" cy="16" r="16" fill="#6FDA44" />
  <path
    fill="#fff"
    d="M23.8787 20.3652C22.6365 20.3652 21.4738 19.8159 20.4159 18.9216L20.6735 17.6599L20.6848 17.6138C20.9146 16.2703 21.6417 14.0142 23.8787 14.0142C25.5564 14.0142 26.921 15.4406 26.921 17.1923C26.916 18.9388 25.5513 20.3652 23.8787 20.3652ZM23.8787 10.7939C21.0206 10.7939 18.8051 12.7339 17.9051 15.9239C16.5291 13.7679 15.4888 11.1798 14.8791 9H11.8039V17.3609C11.8039 19.0086 10.5176 20.352 8.93957 20.352C7.36159 20.352 6.07648 19.0086 6.07648 17.3609V9H3.00004V17.3609C2.98867 20.7853 5.65736 23.596 8.93452 23.596C12.2117 23.596 14.8804 20.7853 14.8804 17.3609V15.9582C15.4787 17.2608 16.2109 18.5752 17.1009 19.7448L15.2162 29H18.3658L19.7305 22.2868C20.9272 23.0876 22.3032 23.5894 23.8812 23.5894C27.2543 23.5894 30 20.7023 30 17.1791C29.9975 13.6625 27.2518 10.7939 23.8787 10.7939Z"
  />
</svg>

<svg xmlns="http://www.w3.org/2000/svg" width="32" height="32" fill="none"><circle cx="16" cy="16" r="16" fill="#6FDA44"/><path fill="#fff" d="M23.879 20.365c-1.242 0-2.405-.55-3.463-1.443l.258-1.262.01-.046c.23-1.344.958-3.6 3.195-3.6 1.677 0 3.042 1.427 3.042 3.178-.005 1.747-1.37 3.173-3.042 3.173m0-9.571c-2.858 0-5.074 1.94-5.974 5.13C16.53 13.768 15.49 11.18 14.88 9h-3.075v8.36c0 1.649-1.286 2.992-2.864 2.992-1.578 0-2.864-1.343-2.864-2.991V9H3v8.36c-.011 3.425 2.657 6.236 5.935 6.236 3.277 0 5.945-2.81 5.945-6.235v-1.403c.599 1.303 1.33 2.617 2.22 3.787L15.217 29h3.15l1.364-6.713c1.197.8 2.573 1.302 4.151 1.302 3.373 0 6.119-2.887 6.119-6.41-.003-3.516-2.748-6.385-6.121-6.385"/></svg>
